22x22/actions/gtk-spell-check.svg

<svg xmlns="http://www.w3.org/2000/svg" viewBox="0 0 22 22">
  <defs id="defs3051">
    <style type="text/css" id="current-color-scheme">
      .ColorScheme-Text {
        color:#5d656b;
      }
      </style>
  </defs>
 <path 
     style="fill:currentColor;fill-opacity:1;stroke:none" 
     d="M 10.146484 3 L 4.9296875 17 L 6.6171875 17 L 8.2871094 12.570312 L 13.847656 12.570312 L 15.382812 17 L 17.070312 17 L 12.140625 3 L 10.146484 3 z M 11.162109 4.6113281 L 13.291016 11.285156 L 8.8046875 11.285156 L 11.162109 4.6113281 z "
     class="ColorScheme-Text"
     />
 <path 
     style="fill:#2ecc71;fill-opacity:1;stroke:none" 
     d="M 3 18 L 3 19 L 19 19 L 19 18 L 3 18 z "
     />
</svg>

<svg xmlns="http://www.w3.org/2000/svg" viewBox="0 0 22 22"><path style="fill:currentColor;fill-opacity:1;stroke:none;color:#5d656b" d="M10.146 3 4.93 17h1.687l1.67-4.43h5.56L15.384 17h1.687L12.14 3h-1.994zm1.016 1.611 2.129 6.674H8.805l2.357-6.674z"/><path style="fill:#2ecc71;fill-opacity:1;stroke:none" d="M3 18v1h16v-1H3z"/></svg>
